src/main/resources/icons/CMakeIcons/icons/CMake_Macro.svg

<svg xmlns="http://www.w3.org/2000/svg" width="16" height="16" viewBox="0 0 16 16">
  <defs>
    <linearGradient id="cmake_macro-a" x1="100%" x2="16.327%" y1="100%" y2="59.996%">
      <stop offset="0%" stop-color="#01B202"/>
      <stop offset="100%" stop-color="#0FE90F"/>
    </linearGradient>
    <linearGradient id="cmake_macro-b" x1="90.095%" x2="0%" y1="5.142%" y2="100%">
      <stop offset="0%" stop-color="#7777E9"/>
      <stop offset="100%" stop-color="#01009A"/>
    </linearGradient>
    <linearGradient id="cmake_macro-c" x1="0%" y1="2.749%" y2="100%">
      <stop offset="0%" stop-color="#B83535"/>
      <stop offset="100%" stop-color="#FD5B5A"/>
    </linearGradient>
  </defs>
  <g fill="none" fill-rule="evenodd">
    <path fill="#F98B9E" fill-opacity=".6" d="M7.11129839,14.944121 C3.6649066,14.5074634 1,11.5649492 1,8 C1,4.134 4.134,1 8,1 C11.866,1 15,4.134 15,8 C15,8.96804182 14.8034996,9.89018756 14.4482098,10.7287261 L12,6.5 L7.11129839,14.944121 Z"/>
    <g transform="translate(7.6 8)">
      <polygon fill="url(#cmake_macro-a)" points="2.967 5.7 8.333 8 .333 8"/>
      <polygon fill="url(#cmake_macro-b)" points="4.333 .333 4.8 4.2 .333 8"/>
      <polygon fill="url(#cmake_macro-c)" points="4.333 .333 8.333 8 5 6.6"/>
    </g>
    <path fill="#231F20" fill-opacity=".7" d="M11.0046997,8.39107099 C11.0046997,8.26658356 11.0046997,8.13622657 11.0046997,8 C11.0041373,7.73961181 11.0041373,7 9.98162842,7 C8.95911952,7 9,7.686 9,8 L9,11.0003 L8,11.0003 L8,8 C7.999,7.537 7.95,7 7,7 C6.05,7 6.05,7.7657 6,8 C5.96666667,8.1562 5.96666667,9.1563 6,11.0003 L5,11.0003 L5,6.0003 L6,6.0003 L6,6.299231 C6.26527507,6.09994367 6.63194173,6.0003 7.1,6.0003 C7.94411621,6.0003 8.28363037,6.19411621 8.5986,6.6 C8.6576,6.502 9.11224365,6.0003 9.98162842,6.0003 C10.9682177,6.0003 11.4929067,6.44556214 11.7558722,6.96384287 L11.0046997,8.39107056 Z"/>
  </g>
</svg>

<svg xmlns="http://www.w3.org/2000/svg" width="16" height="16" viewBox="0 0 16 16"><rect id="frame" width="16" height="16" fill="none"/><defs><linearGradient id="a" x1="100%" x2="16.327%" y1="100%" y2="59.996%"><stop offset="0%" stop-color="#01B202"/><stop offset="100%" stop-color="#0FE90F"/></linearGradient><linearGradient id="b" x1="90.095%" x2="0%" y1="5.142%" y2="100%"><stop offset="0%" stop-color="#7777E9"/><stop offset="100%" stop-color="#01009A"/></linearGradient><linearGradient id="c" x1="0%" y1="2.749%" y2="100%"><stop offset="0%" stop-color="#B83535"/><stop offset="100%" stop-color="#FD5B5A"/></linearGradient></defs><g fill="none" fill-rule="evenodd"><path fill="#F98B9E" fill-opacity=".6" d="M7.111 14.944A7.001 7.001 0 0 1 8 1a7 7 0 0 1 6.448 9.729L12 6.5l-4.889 8.444z"/><path fill="url(#a)" d="M2.967 5.7L8.333 8h-8z" transform="translate(7.6 8)"/><path fill="url(#b)" d="M4.333.333L4.8 4.2.333 8z" transform="translate(7.6 8)"/><path fill="url(#c)" d="M4.333.333l4 7.667L5 6.6z" transform="translate(7.6 8)"/><path fill="#231F20" fill-opacity=".7" d="M11.005 8.391V8c0-.26 0-1-1.023-1S9 7.686 9 8v3H8V8c-.001-.463-.05-1-1-1s-.95.766-1 1c-.033.156-.033 1.156 0 3H5V6h1v.3c.265-.2.632-.3 1.1-.3.844 0 1.184.194 1.499.6.059-.098.513-.6 1.383-.6.986 0 1.51.446 1.774.964l-.751 1.427z"/></g></svg>
